X: 10281
Q: "Slow."
M: C
L: 1/16
K: D
d4 a3g f2g2a2d2 | f3g a3b a4 g3f |\
g3ab3g f3ga3f | g3fe3d {f}e4 d3(e/f/) |\
|: d3e |\
f2d2e2B2 d2A2B2F2 | E4 e3f e4 f3g |\
a2f2a2b2 a2f2 gfed | f3g a3b a4 d4 |\
g3ab3g f3ga3f | g2f2e2d2 e4 d3(e/f/) |\


